X:1
T:Non fia ch'io tema
T:Tuburtio Massaino
T:Non fia ch'io tema
T:Seconda parte
C:Tuburtio Massaino
%%score [ 1 2 3 4 ]
L:1/8
Q:1/4=120
M:4/2
K:C
V:1 alto1 nm="Soprano" snm="S"
V:2 alto nm="Alto" snm="A"
V:3 tenor nm="Tenor" snm="T"
V:4 bass nm="Bass" snm="B"
V:1
 z16 | z8 z4 G4 | F2 E2 D4 C4 z4 | z4 z2 D2 E2 C2 F4 | E4 D4 C4 z4 | z4 A4 B2 B2 c3 B | A4 G4 z8 | %7
w: |Non|fia ch'io te- ma|o non rac- con-|ti a vo- i,|Par- te del mio gio-|i- re,|
 z4 d4 G2 G2 c3 B | A4 G4 z8 | z2 G2 A3 B c4 B2 e2- | ed d2 e3 d c4 B4 | B2 c4 B2 A4 G4 | %12
w: Par- te del mio gio-|i- re,|O quand' i- gnu- da strin-|* si, La man leg- gia- dra,|La man leg- gia- dra|
 z2 G2 F4 E4 c4- | c2 B2 B4 A4 A2 A2 | B8 c2 B4 A2 | z2 G2 D2 G3 G G2 A4 | B4 c6 B2 A4 | G4 z4 z8 | %18
w: o po- i, Quan-|* do sde- gno- sa, sde-|gno- sa e cru- da,|La mia dol- ce ne- mi-|ca mi ri- spin-|se,|
 z8 z4 G4- | G2 E2 c4 B2 B2 A4- | A2 A2 G4 A4 B2 B2- | B2 c2 A4 G2 c2 B4 | c2 B2 A4 B8 | %23
w: E a-|* dun tem- po mi strin-|* se la mi- a, E a-|* dun tem- po mi strin-|se la mi- a,|
 z4 z2 G2 E3 F G3 A | B2 G2 A4 G4 z4 | z4 z2 E2 C3 D E3 F | G2 E2 F4 E4 z4 | z4 c6 c2 B4 | %28
w: Si dol- ce- men- te|so- spi- ran- do,|Si dol- ce- men- te|so- spi- ran- do,|Ch'io po- trei|
 c3 B A4 B8 | z2 A4 A2 c4 B2 B2 | A8 G2 F2 _B4 | _B2 A2 F2 E2 FGA=B c3 B | A4 A4 z2 d2 G2 B2- | %33
w: sol pen- san- do,|Ch'io po- trei sol pen-|san- do al mio fo-|co gen- til giu- rar _ _ _ _ che|si- a, D'o- gni gio-|
 BB c2 A4 z8 | z4 d4 G2 c3 c A2 | B2 c2 d4 c4 A4 | G2 c2 F2 c3 B B2 c2 G2- | G2 c2 B2 A3 G G4 ^F2 | %38
w: * ia mag- gior,|D'o- gni gio- ia mag-|gior la gio- ia mi-|a, D'o- gni gio- ia mag- gior la|_ gio- ia mi- * * *|
 G8 z4 c4- | c2 B2 B4 c3 B A4 | B8 z2 A4 A2 | c4 B2 B2 A8 | G2 F2 _B4 B2 A2 F2 E2 | %43
w: a, Ch'io|_ po- trei sol pen- san-|do, Ch'io po-|trei sol pen- san-|do al mio fo- co gen- til giu-|
 FGAB c3 B A4 A4 | z2 d2 G2 B3 B c2 A4 | z8 z4 d4 | G2 c3 c A2 B2 c2 d4 | c4 A4 G2 c2 F2 c2- | %48
w: rar _ _ _ _ che si- a,|D'o- gni gio- ia mag- gior,|D'o-|gni gio- ia mag- gior la gio-|ia mi- a, D'o- gni gio-|
 cB B2 c2 G4 c2 B2 A2- | AG G4 ^F2 G8 |] %50
w: * ia mag- gior la gio- ia mi-|* * * * a.|
V:2
 z16 | z2 G,2 A,2 C2 B,4 C4 | z4 z2 D2 E2 C2 F4 | E4 D4 C4 z4 | z8 z4 G4 | C2 C2 F3 E D4 C4 | %6
w: |Non fia ch'io te- ma|o non rac- con-|ti a vo- i,|Par-|te del mio gio- i- re,|
 z8 G4 C2 C2 | F3 E D4 E2 E2 A2 G2 | F4 E4 z8 | z4 z2 D2 E3 F G4 | G4 z2 G3 F F2 G3 F | %11
w: Par- te del|mio gio- i- re, del mio gio-|i- re,|O quand' i- gnu-|da strin- si, La man leg-|
 E4 D4 z2 A,2 C4 | B,4 A,6 A,2 E4 | E4 E4 F8 | E4 z2 E2 C2 D3 D C2 | E3 F G2 D2 E4 D4 | %16
w: gia- dra o po-|i, Quan- do sde-|gno- sa e cru-|da, La mia dol- ce ne-|mi- ca mi ri- spin- se,|
 z4 G,6 G,2 A,4 | C2 B,2 D4 G,2 G4 F2 | E4 D4 z4 E4 | E2 C3 DEF G4 F2 D2 | %20
w: La mia dol-|ce ne- mi- ca mi ri-|spin- se, E a-|dun tem- * * * * po mi|
 F3 F E2 G3 ^F/E/ F2 G2 G2- | G2 G2 F4 E2 G2 G3 G | G2 G3 F F2 G4 z2 G,2 | B,3 C D4 G,8 | %24
w: strin- se la mi- * * * a, E a-|* dun tem- po mi strin- se|la mi- * * a, Si|dol- ce- men- te,|
 z2 G,2 C3 D E3 F G2 E2 | F4 E4 z8 | C4 A,3 B, C3 D E2 C2 | D4 C4 z8 | z8 G6 G2 | %29
w: Si dol- ce- men- te so- spi-|ran- do,|Si dol- ce- men- te so- spi-|ran- do,|Ch'io po-|
 A4 E2 E2 G4 D2 D2 | F4 C2 D2 E2 F2 G4- | G2 F2 A3 GFE F3 E E2 | F4 z4 A4 D2 G2- | %33
w: trei sol pen- san- do al mio|fo- co gen- til giu- rar|_ che si- * * * * * *|a, D'o- gni gio-|
 GG E2 F6 E2 DEFG | AF G4 F2 E4 F4 | z2 G2 D2 G3 G A2 F4 | E2 A4 G2 F4 E2 E2- | E2 F2 D2 E4 D2 D4 | %38
w: * ia mag- gior la gio- * * *|* * * ia mi- a,|D'o- gni gio- ia mag- gior|la gio- ia mi- a, la|_ gio- ia mi- a, mi-|
 D2 D4 D2 D2 E4 ^F2 | G4 D2 D2 E4 F2 E2 | E2 G4 G2 A4 E2 E2 | G4 D2 D2 F4 C2 D2 | %42
w: a, Ch'io po- trei sol pen-|san- do al mio fo- co gen-|til Ch'io po- trei sol pen-|san- do al mio fo- co gen-|
 E2 F2 G6 F2 A3 G | FE F3 E E2 F4 z4 | A4 D2 G3 G E2 F4- | F2 E2 DEFGAF G4 F2 | %46
w: til giu- rar che si- *|* * * * * a,|D'o- gni gio- ia mag- gior|_ la gio- * * * * * * ia|
 E4 F4 z2 G2 D2 G2- | GG A2 F4 E2 A4 G2 | F4 E2 E4 F2 D2 E2- | E2 D2 D4 D8 |] %50
w: mi- a, D'o- gni gio-|* ia mag- gior la gio- ia|mi- a, la gio- ia mi-|* a, mi- a.|
V:3
 z16 | z8 z4 G,4 | A,2 C2 B,4 C4 z4 | z2 C,2 G,3 G, E,2 F,2 D,4 | C,4 z4 z8 | %5
w: |Non|fia ch'io te- ma|o non rac- con- ti a vo-|i,|
 z4 D4 G,2 G,2 A,3 G, | F,4 E,4 z2 E2 A,B, C2- | C2 B,A, B,4 C4 z2 G,2 | A,3 B, C4 B,2 D3 D A,2 | %9
w: Par- te del mio gio-|i- re, del mio gio- i-|* * * * re, O|quand' i- gnu- da strin- si, La|
 C3 B, A,4 G,4 z2 C2- | CC B,2 C3 B, A,4 G,4 | z4 z2 G,2 F,4 E,4 | z16 | z8 z4 C4- | %14
w: man leg- gia- dra, strin-|* si, La man leg- gia- dra|o po- i,||Quan-|
 C2 B,2 B,4 A,4 A,2 A,2 | B,8 C2 B,4 A,2 | z2 G,2 E,2 E4 D2 D4 | E4 A,2 D4 B,2 A,4 | G,8 z4 C4- | %19
w: * do sde- gno- sa, sde-|gno- sa e cru- da,|La mia dol- ce ne-|mi- ca mi ri- spin-|se, E a-|
 C2 G,2 A,4 D,2 D2 D4 | C2 C2 E3 DCB, C2 B,2 D2- | D2 E2 C4 C2 E2 D4 | E4 C4 D4 D4 | %23
w: * dun tem- po mi strin-|se la mi- * * * * a, E a-|* dun tem- po mi strin-|se la mi- a,|
 G,4 B,3 B, C4 B,4 | z2 C2 A,3 B, C3 D E2 C2 | D4 C4 z2 C4 A,2 | G,4 F,4 z4 G,4- | %27
w: Si dol- ce- men- te,|Si dol- ce- men- te so- spi-|ran- do, so- spi-|ran- do, Ch'io|
 G,2 G,2 A,4 E,2 E,2 G,4 | C,2 C,2 C4 B,2 E2 D4 | F2 F2 C4 E2 E2 B,4 | D2 A,3 G,A,B, C2 A,2 D4- | %31
w: _ po- trei sol pen- san-|do al mio fo- co gen- til|Al mio fo- co gen- til|giu- rar _ _ _ _ che si-|
 D4 A,4 z4 z2 E2- | E2 D3 C C2 D4 z2 D2 | G,2 C3 C A,2 B,2 C2 D4 | C4 B,4 C4 z2 D2 | %35
w: * a, giu-|* rar che si- a, D'o-|gni gio- ia mag- gior la gio-|ia mi- a, D'o-|
 G,2 C3 C B,2 C2 A,2 D3 C | B,2 A,2 z4 D4 G,2 C2- | CC A,2 B,2 C2 C2 B,2 A,4 | G,4 G,6 G,2 A,4 | %39
w: gni gio- ia mag- gior la gio- ia|mi- a, D'o- gni gio-|* ia mag- gior la gio- ia mi-|a, Ch'io po- trei|
 E,2 E,2 G,4 C,2 C,2 C4 | B,2 E2 D4 F2 F2 C4 | E2 E2 B,4 D2 A,3 G,A,B, | C2 A,2 D8 A,4 | %43
w: sol pen- san- do al mio fo-|co gen- til Al mio fo-|co gen- til giu- rar _ _ _|_ che si- a,|
 z4 z2 E4 D3 C C2 | D4 z2 D2 G,2 C3 C A,2 | B,2 C2 D4 C4 B,4 | C4 z2 D2 G,2 C3 C B,2 | %47
w: giu- rar che si-|a, D'o- gni gio- ia mag-|gior la gio- ia mi-|a, D'o- gni gio- ia mag-|
 C2 A,2 D3 C B,2 A,2 z4 | D4 G,2 C3 C A,2 B,2 C2 | C2 B,2 A,4 G,8 |] %50
w: gior la gio- ia mi- a,|D'o- gni gio- ia mag- gior la|gio- ia mi- a.|
V:4
 z16 | G,4 F,2 E,2 D,4 C,4 | z2 C,2 G,3 G, E,2 F,2 D,4 | C,4 z2 G,4 A,4 B,2 | C4 B,4 A,4 G,2 C,2 | %5
w: |Non fia ch'io te- ma|o non rac- con- ti a vo-|i, o non rac-|con- ti a vo- i, a|
 F,4 D,4 z8 | z4 G,4 C,2 C,2 F,3 E, | D,8 C,4 z4 | z2 D,2 E,3 F, G,4 D,2 F,2- | %9
w: vo- i,|Par- te del mio gio-|i- re,|O quand' i- gnu- da strin-|
 F,F, E,2 F,3 F, C,3 D, E,3 F, | G,4 C,4 z4 E,4 | G,4 G,4 z8 | z8 z4 A,4- | A,2 A,2 G,4 A,8 | %14
w: * si, La man leg- gia- * * *|* dra o|po- i,|Quan-|* do sde- gno-|
 G,8 F,8 | E,4 z2 G,2 E,2 G,3 G, F,2 | G,4 C,4 G,6 F,2 | E,4 D,4 z8 | z8 z4 C,4- | %19
w: sa e cru-|da, La mia dol- ce ne-|mi- ca mi ri-|spin- se,|E a-|
 C,2 C,2 A,,4 G,,2 G,,2 D,4 | A,,2 A,,2 C,3 B,, A,,4 G,,2 G,2- | G,2 E,2 F,4 C,2 C,2 G,4 | %22
w: * dun tem- po mi strin-|se la mi- * * a, E a-|* dun tem- po mi strin-|
 E,2 E,2 A,4 G,8 | z4 G,,4 C,3 D, E,3 F, | G,2 E,2 F,4 E,8 | z4 C,4 A,,3 B,, C,3 D, | %26
w: se la mi- a,|Si dol- ce- men- te|so- spi- ran- do,|Si dol- ce- men- te|
 E,2 C,2 D,4 C,8 | z8 z4 z2 G,2- | G,2 G,2 A,4 E,2 E,2 G,4 | D,2 D,2 A,4 E,2 E,2 G,4 | %30
w: so- spi- ran- do,|Ch'io|_ po- trei sol pen- san-|do al mio fo- co gen- til|
 D,2 D,2 F,4 C,2 D,2 G,,4- | G,,2 D,2 D,2 A,,2 D,4 C,2 C,2 | F,2 D,2 A,4 D,4 G,4- | %33
w: Al mio fo- co gen- til|_ giu- rar che si- a, giu-|rar che si- a, D'o-|
 G,2 C,2 F,4 D,2 C,2 G,2 F,2 | F,2 E,2 D,4 C,4 z4 | z4 G,4 C,2 F,3 F, D,2 | %36
w: * gni gio- ia mag- gior la|gio- ia mi- a,|D'o- gni gio- ia mag-|
 E,2 F,2 F,2 E,2 D,4 C,4 | z4 z2 C,2 E,2 G,2 D,4 | G,,8 z8 | z4 z2 G,4 G,2 A,4 | %40
w: gior la gio- ia mi- a,|la gio- ia mi-|a,|Ch'io po- trei|
 E,2 E,2 G,4 D,2 D,2 A,4 | E,2 E,2 G,4 D,2 D,2 F,4 | C,2 D,2 G,,6 D,2 D,2 A,,2 | %43
w: sol pen- san- do al mio fo-|co gen- til Al mio fo-|co gen- til giu- rar che|
 D,4 C,2 C,2 F,2 D,2 A,4 | D,4 G,6 C,2 F,4 | D,2 C,2 G,2 F,2 F,2 E,2 D,4 | C,4 z4 z4 G,4 | %47
w: si- a, giu- rar che si-|a, D'o- gni gio-|ia mag- gior la gio- ia mi-|a, D'o-|
 C,2 F,3 F, D,2 E,2 F,2 F,2 E,2 | D,4 C,4 z4 z2 C,2 | E,2 G,2 D,4 G,,8 |] %50
w: gni gio- ia mag- gior la gio- ia|mi- a, la|gio- ia mi- a.|

